optimized/refah-color.svg

<svg xmlns="http://www.w3.org/2000/svg" fill="none" viewBox="0 0 40 40">
  <path fill="url(#a)" d="M20.866 40c-.258-.066-.521-.119-.774-.202-1.578-.513-2.64-2.09-2.494-3.693.162-1.783 1.431-3.136 3.154-3.362 1.954-.257 3.782 1.079 4.076 2.978.313 2.017-.974 3.856-2.948 4.214-.094.017-.186.043-.279.065h-.736.001Z"/>
  <path fill="url(#b)" d="M6 18.878c.11-2.485 1.27-4.681 3.704-6.093C16.964 8.57197 24.241 4.38898 31.511.193975c.605-.349 1.026-.2289998 1.352.383 1.675 3.152005.572 7.013005-2.526 8.803005C25.99 11.893 21.638 14.399 17.288 16.909c-1.266.73-2.541 1.446-3.795 2.196-2.095 1.252-3.313 3.098-3.627 5.521-.057.443-.042.896-.046 1.344-.002.23-.08.4-.3.48-.225.081-.439.005-.566-.215-.726-1.258-1.467-2.508-2.164-3.783-.554-1.014-.775-2.124-.789-3.573L6 18.878Z"/>
  <path fill="url(#c)" d="M30.687 18.702c-.096 2.495-1.173 4.425-3.347 5.695-2.673 1.561-5.366 3.085-8.038 4.647-2.091 1.223-3.311 3.054-3.647 5.455-.063.45-.048.9111-.051 1.3681-.002.308-.093.482-.335.5529-.246.073-.419-.009-.579-.284-.658-1.138-1.326-2.27-1.967-3.417-1.961-3.508-.758-7.934 2.718-9.952 4.393-2.55 8.797-5.08 13.197-7.617.496-.286.944-.161 1.219.337.552.999.837 2.066.831 3.216l-.001-.001Z"/>
  <defs>
    <linearGradient id="a" x1="7.72399" x2="19.366" y1="13.846" y2="33.225" gradientUnits="userSpaceOnUse">
      <stop stop-color="#173D91"/>
      <stop offset="1" stop-color="#D0056D"/>
    </linearGradient>
    <linearGradient id="b" x1="17.607" x2="29.25" y1="7.90897" y2="27.287" gradientUnits="userSpaceOnUse">
      <stop stop-color="#173D91"/>
      <stop offset="1" stop-color="#D0056D"/>
    </linearGradient>
    <linearGradient id="c" x1="13.133" x2="24.776" y1="10.597" y2="29.975" gradientUnits="userSpaceOnUse">
      <stop stop-color="#173D91"/>
      <stop offset="1" stop-color="#D0056D"/>
    </linearGradient>
  </defs>
</svg>

<svg width="40" height="40" viewBox="0 0 40 40" fill="none" xmlns="http://www.w3.org/2000/svg">
<path d="M20.866 40C20.608 39.934 20.345 39.881 20.092 39.798C18.514 39.285 17.452 37.708 17.598 36.105C17.76 34.322 19.029 32.969 20.752 32.743C22.706 32.486 24.534 33.822 24.828 35.721C25.141 37.738 23.854 39.577 21.88 39.935C21.786 39.952 21.694 39.978 21.601 40H20.865H20.866Z" fill="url(#paint0_linear_30_163)"/>
<path d="M6 18.878C6.11 16.393 7.27 14.197 9.704 12.785C16.964 8.57197 24.241 4.38898 31.511 0.193975C32.116 -0.155025 32.537 -0.0350248 32.863 0.576975C34.538 3.72898 33.435 7.58998 30.337 9.37998C25.99 11.893 21.638 14.399 17.288 16.909C16.022 17.639 14.747 18.355 13.493 19.105C11.398 20.357 10.18 22.203 9.866 24.626C9.809 25.069 9.824 25.522 9.82 25.97C9.818 26.2 9.74 26.37 9.52 26.45C9.295 26.531 9.081 26.455 8.954 26.235C8.228 24.977 7.487 23.727 6.79 22.452C6.236 21.438 6.015 20.328 6.001 18.879L6 18.878Z" fill="url(#paint1_linear_30_163)"/>
<path d="M30.687 18.702C30.591 21.197 29.514 23.127 27.34 24.397C24.667 25.958 21.974 27.482 19.302 29.044C17.211 30.267 15.991 32.098 15.655 34.499C15.592 34.949 15.607 35.4101 15.604 35.8671C15.602 36.1751 15.511 36.3491 15.269 36.42C15.023 36.493 14.85 36.411 14.69 36.136C14.032 34.998 13.364 33.866 12.723 32.719C10.762 29.211 11.965 24.785 15.441 22.767C19.834 20.217 24.238 17.687 28.638 15.15C29.134 14.864 29.582 14.989 29.857 15.487C30.409 16.486 30.694 17.553 30.688 18.703L30.687 18.702Z" fill="url(#paint2_linear_30_163)"/>
<defs>
<linearGradient id="paint0_linear_30_163" x1="7.72399" y1="13.846" x2="19.366" y2="33.225" gradientUnits="userSpaceOnUse">
<stop stop-color="#173D91"/>
<stop offset="1" stop-color="#D0056D"/>
</linearGradient>
<linearGradient id="paint1_linear_30_163" x1="17.607" y1="7.90897" x2="29.25" y2="27.287" gradientUnits="userSpaceOnUse">
<stop stop-color="#173D91"/>
<stop offset="1" stop-color="#D0056D"/>
</linearGradient>
<linearGradient id="paint2_linear_30_163" x1="13.133" y1="10.597" x2="24.776" y2="29.975" gradientUnits="userSpaceOnUse">
<stop stop-color="#173D91"/>
<stop offset="1" stop-color="#D0056D"/>
</linearGradient>
</defs>
</svg>
